X: 11978
T: Enjoy Your Stay
R: polka
M: 2/4
K: Dmajor
|:AA/B/ AD|F/G/A df|ge fd|ed Bd|
AA/B/ AD|F/G/A df|az gc|ed d2:|
|:ff/e/ df|ed ce|dd/c/ dA|Bd Az|
e/f/a df|ed ce|df af|fe ez|
ff/e/ df|ed ce|dd/c/ dA|Bd AF|
DD/F/ Ad|FA df|az gc|ed d2||

